; generated by PrusaSlicer 2.4.0+win64 on 2022-05-17 at 02:45:08 UTC

; 

; external perimeters extrusion width = 0.45mm
; perimeters extrusion width = 0.45mm
; infill extrusion width = 0.45mm
; solid infill extrusion width = 0.45mm
; top infill extrusion width = 0.40mm
; first layer extrusion width = 0.45mm

; external perimeters extrusion width = 0.45mm
; perimeters extrusion width = 0.45mm
; infill extrusion width = 0.45mm
; solid infill extrusion width = 0.45mm
; top infill extrusion width = 0.40mm
; first layer extrusion width = 0.45mm

M201 X1000 Y1000 Z200 E5000 ; sets maximum accelerations, mm/sec^2
M203 X100 Y100 Z12 E120 ; sets maximum feedrates, mm/sec
M204 P1250 R1250 T1250 ; sets acceleration (P, T) and retract acceleration (R), mm/sec^2
M205 X8.00 Y8.00 Z0.40 E3.00 ; sets the jerk limits, mm/sec
M205 S0 T0 ; sets the minimum extruding and travel feed rate, mm/sec
M107
;TYPE:Custom
M84 ; disable motors
M117 Heating... ;Put printing message on LCD screen
M300 S2500 P100; Beep
M104 S210 ; set extruder temp
M140 S50 ; set bed temp
M190 S50 ; wait for bed temp
M109 S210 ; wait for extruder temp
G28; Home XY
; Start of print
G21; metric values
G90 ; absolute positioning
M82; set extruder to absolute mode

; Prepare nozzle
G92 E0 ; Set extrusion distance to 0
G1 E3 F1800;
G92 E0 ; Set extrusion distance to 0
G90;

; You may want to adjust the X and Y here so the nozzle is really above the bed!
G1 X5.0 Y5.0 F7200 ; Move to a position in the left front of the bed
G1 Z0.4 ; Move nozzle above 0.4 mm of the bed

G1 X100 E20 F1000 ; prints a line in the front

; Done with the dancing :)
G92 E0 ; Set extrusion distance to 0

M117 Printing... ;Put printing message on LCD screen
; Start of actual GCode for the print
G21 ; set units to millimeters
G90 ; use absolute coordinates
M83 ; use relative distances for extrusion
; Filament gcode
M107
;LAYER_CHANGE
;Z:0.2
;HEIGHT:0.2
;BEFORE_LAYER_CHANGE
;Layer 0
;0.2mm


G1 E-1.1 F2100
G1 Z.4 F10800
;AFTER_LAYER_CHANGE
;Layer 0
;0.2mm


G1 X48.733 Y43.671
G1 Z.2
G1 E1.1 F2100
;TYPE:Skirt/Brim
;WIDTH:0.45
G1 F1200
G1 X49.438 Y42.92 E.03485
G1 X50.242 Y42.277 E.03485
G1 X51.548 Y41.564 E.05035
G1 X52.523 Y41.235 E.03485
G1 X53.536 Y41.049 E.03485
G1 X80.565 Y41.008 E.9149
G1 X116.829 Y45.79 E1.23813
G1 X118.29 Y46.254 E.05188
G1 X119.399 Y46.9 E.04344
G1 X120.326 Y47.737 E.04227
G1 X120.765 Y48.266 E.02327
G1 X121.234 Y49.014 E.02989
G1 X121.749 Y50.301 E.04691
G1 X121.939 Y51.268 E.03336
G1 X121.986 Y52 E.02483
G1 X121.978 Y102.009 E1.69274
G1 X121.875 Y102.943 E.03181
G1 X121.635 Y103.852 E.03182
G1 X120.932 Y105.265 E.05343
G1 X119.928 Y106.44 E.05231
G1 X119.399 Y106.879 E.02328
G1 X118.651 Y107.348 E.02989
G1 X117.364 Y107.863 E.04691
G1 X116.397 Y108.053 E.03336
G1 X115.665 Y108.1 E.02483
G1 X88.933 Y108.053 E.90485
G1 X53.081 Y105.107 E1.21764
G1 X51.548 Y104.657 E.05409
G1 X50.242 Y103.944 E.05035
G1 X49.034 Y102.897 E.05409
G1 X48.143 Y101.706 E.05035
G1 X47.678 Y100.787 E.03485
G1 X47.349 Y99.812 E.03485
G1 X47.163 Y98.799 E.03485
G1 X47.114 Y98 E.0271
G1 X47.114 Y48.221 E1.68496
G1 X47.163 Y47.422 E.0271
G1 X47.349 Y46.409 E.03485
G1 X47.869 Y45.016 E.05035
G1 X48.701 Y43.722 E.05206
G1 X49.042 Y43.941 F10800
G1 F1200
G1 X49.726 Y43.208 E.03392
G1 X50.486 Y42.603 E.03289
G1 X51.69 Y41.946 E.04643
G1 X52.61 Y41.633 E.03289
G1 X53.565 Y41.455 E.03289
G1 X80.536 Y41.414 E.91293
G1 X116.743 Y46.187 E1.23616
G1 X118.134 Y46.63 E.04943
G1 X119.155 Y47.226 E.04001
G1 X120.016 Y48.001 E.03923
G1 X120.807 Y49.088 E.04547
G1 X121.353 Y50.396 E.048
G1 X121.533 Y51.3 E.0312
G1 X121.579 Y52 E.02375
G1 X121.572 Y101.98 E1.69176
G1 X121.353 Y103.383 E.04807
G1 X120.807 Y104.691 E.048
G1 X120.405 Y105.314 E.0251
G1 X119.866 Y105.94 E.02793
G1 X119.2 Y106.519 E.02986
G1 X118.577 Y106.921 E.0251
G1 X117.269 Y107.467 E.048
G1 X116.365 Y107.647 E.0312
G1 X115.665 Y107.693 E.02375
G1 X89.387 Y107.68 E.88947
G1 X53.168 Y104.709 E1.23011
G1 X51.69 Y104.275 E.05213
G1 X50.486 Y103.618 E.04643
G1 X49.322 Y102.609 E.05213
G1 X48.5 Y101.511 E.04643
G1 X48.06 Y100.645 E.03289
G1 X47.747 Y99.725 E.03289
G1 X47.569 Y98.77 E.03289
G1 X47.521 Y98 E.02611
G1 X47.521 Y48.221 E1.68496
G1 X47.569 Y47.451 E.02611
G1 X47.747 Y46.496 E.03289
G1 X48.227 Y45.211 E.04643
G1 X49.01 Y43.992 E.04905
G1 X49.352 Y44.211 F10800
G1 F1200
G1 X50.013 Y43.496 E.03299
G1 X50.73 Y42.929 E.03092
G1 X51.832 Y42.327 E.04251
G1 X52.696 Y42.031 E.03092
G1 X53.594 Y41.861 E.03092
G1 X80.507 Y41.82 E.91096
G1 X116.656 Y46.585 E1.23419
G1 X117.978 Y47.007 E.04697
G1 X118.911 Y47.552 E.03658
G1 X119.707 Y48.266 E.03618
G1 X120.46 Y49.3 E.04331
G1 X120.957 Y50.491 E.04368
G1 X121.172 Y52 E.05159
G1 X121.166 Y101.951 E1.69077
G1 X120.957 Y103.288 E.04581
G1 X120.46 Y104.479 E.04368
G1 X120.079 Y105.07 E.02382
G1 X119.579 Y105.652 E.02597
G1 X118.956 Y106.193 E.02789
G1 X118.365 Y106.574 E.02382
G1 X117.174 Y107.071 E.04368
G1 X115.665 Y107.286 E.05159
G1 X89.419 Y107.275 E.88839
G1 X53.571 Y104.358 E1.21745
G1 X52.696 Y104.19 E.03013
G1 X51.832 Y103.894 E.03092
G1 X50.73 Y103.292 E.04251
G1 X49.61 Y102.322 E.05016
G1 X48.857 Y101.316 E.04251
G1 X48.441 Y100.503 E.03092
G1 X48.145 Y99.639 E.03092
G1 X47.975 Y98.741 E.03092
G1 X47.928 Y98 E.02513
G1 X47.928 Y48.221 E1.68496
G1 X47.975 Y47.48 E.02513
G1 X48.145 Y46.582 E.03092
G1 X48.584 Y45.406 E.04251
G1 X49.319 Y44.262 E.04604
;WIPE_START
G1 F8640
G1 X50.013 Y43.496 E-.23867
G1 X50.73 Y42.929 E-.21095
G1 X51.832 Y42.327 E-.28998
G1 X52.696 Y42.031 E-.21095
G1 X53.098 Y41.955 E-.09445
;WIPE_END
G1 E-.055 F2100
G1 Z.6 F10800
G1 X88.913 Y72.048
G1 Z.2
G1 E1.1 F2100
;TYPE:Perimeter
G1 F1200
G1 X89.069 Y71.901 E.00726
G1 X89.558 Y71.607 E.0193
G1 X90.098 Y71.425 E.0193
G1 X90.613 Y71.369 E.01752
G1 X91.226 Y71.423 E.02083
G1 X91.772 Y71.607 E.01953
G1 X92.261 Y71.901 E.0193
G1 X92.675 Y72.293 E.0193
G1 X92.995 Y72.765 E.0193
G1 X93.206 Y73.295 E.0193
G1 X93.298 Y73.857 E.0193
G1 X93.267 Y74.427 E.0193
G1 X93.115 Y74.976 E.0193
G1 X92.848 Y75.48 E.0193
G1 X92.478 Y75.915 E.0193
G1 X92.024 Y76.26 E.0193
G1 X91.507 Y76.499 E.0193
G1 X90.95 Y76.622 E.0193
G1 X90.38 Y76.622 E.0193
G1 X89.823 Y76.499 E.0193
G1 X89.305 Y76.26 E.0193
G1 X88.893 Y75.946 E.01752
G1 X88.485 Y75.486 E.02083
G1 X88.215 Y74.976 E.01953
G1 X88.063 Y74.427 E.0193
G1 X88.032 Y73.857 E.0193
G1 X88.124 Y73.295 E.0193
G1 X88.335 Y72.765 E.0193
G1 X88.655 Y72.293 E.0193
G1 X88.87 Y72.09 E.01001
G1 X88.967 Y72.558 F10800
;TYPE:External perimeter
G1 F1200
G1 X89.317 Y72.227 E.0163
G1 X89.73 Y71.978 E.0163
G1 X90.186 Y71.825 E.0163
G1 X90.617 Y71.778 E.01466
G1 X91.142 Y71.824 E.01783
G1 X91.6 Y71.978 E.01638
G1 X92.013 Y72.227 E.0163
G1 X92.363 Y72.558 E.0163
G1 X92.633 Y72.957 E.0163
G1 X92.811 Y73.404 E.0163
G1 X92.889 Y73.879 E.0163
G1 X92.863 Y74.36 E.0163
G1 X92.734 Y74.825 E.0163
G1 X92.509 Y75.25 E.0163
G1 X92.197 Y75.617 E.0163
G1 X91.813 Y75.909 E.0163
G1 X91.376 Y76.111 E.0163
G1 X90.906 Y76.215 E.0163
G1 X90.424 Y76.215 E.0163
G1 X89.954 Y76.111 E.0163
G1 X89.517 Y75.909 E.0163
G1 X89.172 Y75.647 E.01466
G1 X88.822 Y75.252 E.01783
G1 X88.596 Y74.825 E.01638
G1 X88.467 Y74.36 E.0163
G1 X88.441 Y73.879 E.0163
G1 X88.519 Y73.404 E.0163
G1 X88.697 Y72.957 E.0163
G1 X88.934 Y72.608 E.01427
G1 X88.833 Y72.181 F10800
;WIPE_START
G1 F8640
G1 X89.317 Y72.227 E-.12479
G1 X89.73 Y71.978 E-.11122
G1 X90.186 Y71.825 E-.11122
G1 X90.617 Y71.778 E-.10004
G1 X91.142 Y71.824 E-.12164
G1 X91.6 Y71.978 E-.11176
G1 X92.013 Y72.227 E-.11122
G1 X92.363 Y72.558 E-.11122
G1 X92.633 Y72.957 E-.11122
G1 X92.682 Y73.08 E-.03068
;WIPE_END
G1 E-.055 F2100
G1 Z.6 F10800
G1 X89.761 Y69.462
G1 Z.2
G1 E1.1 F2100
;TYPE:Perimeter
G1 F1200
G1 X89.558 Y69.393 E.00726
G1 X89.069 Y69.099 E.0193
G1 X88.655 Y68.707 E.0193
G1 X88.335 Y68.235 E.0193
G1 X88.124 Y67.706 E.0193
G1 X88.032 Y67.143 E.0193
G1 X88.063 Y66.573 E.0193
G1 X88.215 Y66.024 E.0193
G1 X88.482 Y65.52 E.0193
G1 X88.852 Y65.086 E.0193
G1 X89.306 Y64.741 E.0193
G1 X89.823 Y64.501 E.0193
G1 X90.38 Y64.379 E.0193
G1 X90.95 Y64.379 E.0193
G1 X91.507 Y64.501 E.0193
G1 X92.025 Y64.741 E.0193
G1 X92.479 Y65.086 E.0193
G1 X92.848 Y65.52 E.0193
G1 X93.115 Y66.024 E.0193
G1 X93.267 Y66.573 E.0193
G1 X93.298 Y67.143 E.0193
G1 X93.206 Y67.706 E.0193
G1 X92.995 Y68.235 E.0193
G1 X92.704 Y68.664 E.01752
G1 X92.267 Y69.096 E.02083
G1 X91.772 Y69.393 E.01953
G1 X91.232 Y69.575 E.0193
G1 X90.665 Y69.637 E.0193
G1 X90.098 Y69.575 E.0193
G1 X89.818 Y69.481 E.01001
G1 X90.186 Y69.175 F10800
;TYPE:External perimeter
G1 F1200
G1 X89.73 Y69.022 E.0163
G1 X89.317 Y68.773 E.0163
G1 X88.967 Y68.442 E.0163
G1 X88.697 Y68.043 E.0163
G1 X88.519 Y67.596 E.0163
G1 X88.441 Y67.121 E.0163
G1 X88.467 Y66.64 E.0163
G1 X88.596 Y66.176 E.0163
G1 X88.821 Y65.75 E.0163
G1 X89.133 Y65.383 E.0163
G1 X89.517 Y65.091 E.0163
G1 X89.954 Y64.889 E.0163
G1 X90.424 Y64.786 E.0163
G1 X90.906 Y64.786 E.0163
G1 X91.376 Y64.889 E.0163
G1 X91.813 Y65.091 E.0163
G1 X92.197 Y65.383 E.0163
G1 X92.509 Y65.75 E.0163
G1 X92.734 Y66.176 E.0163
G1 X92.863 Y66.64 E.0163
G1 X92.889 Y67.121 E.0163
G1 X92.811 Y67.596 E.0163
G1 X92.633 Y68.043 E.0163
G1 X92.39 Y68.402 E.01466
G1 X92.015 Y68.772 E.01783
G1 X91.6 Y69.022 E.01638
G1 X91.144 Y69.175 E.0163
G1 X90.665 Y69.228 E.0163
G1 X90.246 Y69.182 E.01427
G1 X89.916 Y69.471 F10800
;WIPE_START
G1 F8640
G1 X89.73 Y69.022 E-.12479
G1 X89.317 Y68.773 E-.11122
G1 X88.967 Y68.442 E-.11122
G1 X88.697 Y68.043 E-.11122
G1 X88.519 Y67.596 E-.11122
G1 X88.441 Y67.121 E-.11122
G1 X88.467 Y66.64 E-.11122
G1 X88.596 Y66.176 E-.11122
G1 X88.821 Y65.75 E-.11122
G1 X88.907 Y65.649 E-.03046
;WIPE_END
G1 E-.055 F2100
G1 Z.6 F10800
G1 X96.5 Y61.422
G1 Z.2
G1 E1.1 F2100
;TYPE:Perimeter
G1 F1200
G1 X96.28 Y61.049 E.01465
G1 X96.041 Y60.335 E.02547
G1 X95.954 Y59.581 E.02571
G1 X96.038 Y58.772 E.02753
G1 X96.28 Y58.051 E.02573
G1 X96.662 Y57.403 E.02547
G1 X97.17 Y56.848 E.02547
G1 X97.782 Y56.41 E.02547
G1 X98.471 Y56.108 E.02547
G1 X99.208 Y55.956 E.02547
G1 X99.96 Y55.96 E.02547
G1 X100.696 Y56.12 E.02547
G1 X101.382 Y56.429 E.02547
G1 X101.99 Y56.873 E.02547
G1 X102.492 Y57.433 E.02547
G1 X102.867 Y58.086 E.02547
G1 X103.099 Y58.801 E.02547
G1 X103.172 Y59.504 E.0239
G1 X103.085 Y60.343 E.02855
G1 X102.863 Y61.027 E.02435
G1 X102.452 Y61.712 E.02705
G1 X101.988 Y62.228 E.02348
G1 X101.382 Y62.671 E.02541
G1 X100.696 Y62.98 E.02547
G1 X99.96 Y63.14 E.02547
G1 X99.208 Y63.144 E.02547
G1 X98.471 Y62.991 E.02547
G1 X97.782 Y62.69 E.02547
G1 X97.17 Y62.252 E.02547
G1 X96.662 Y61.697 E.02547
G1 X96.53 Y61.473 E.00879
G1 X96.967 Y61.413 F10800
G1 F1200
G1 X96.652 Y60.879 E.02097
G1 X96.44 Y60.246 E.02258
G1 X96.363 Y59.579 E.02276
G1 X96.439 Y58.859 E.0245
G1 X96.652 Y58.221 E.02277
G1 X96.991 Y57.646 E.02258
G1 X97.441 Y57.154 E.02258
G1 X97.984 Y56.766 E.02258
G1 X98.595 Y56.498 E.02258
G1 X99.249 Y56.364 E.02258
G1 X99.916 Y56.367 E.02258
G1 X100.568 Y56.509 E.02258
G1 X101.176 Y56.782 E.02259
G1 X101.715 Y57.176 E.02259
G1 X102.16 Y57.673 E.02259
G1 X102.493 Y58.252 E.02259
G1 X102.698 Y58.886 E.02258
G1 X102.763 Y59.504 E.02102
G1 X102.684 Y60.258 E.02565
G1 X102.49 Y60.857 E.02134
G1 X102.123 Y61.469 E.02415
G1 X101.714 Y61.924 E.02072
G1 X101.176 Y62.317 E.02254
G1 X100.568 Y62.591 E.02258
G1 X99.916 Y62.733 E.02258
G1 X99.249 Y62.736 E.02258
G1 X98.595 Y62.601 E.02258
G1 X97.984 Y62.334 E.02258
G1 X97.441 Y61.946 E.02258
G1 X96.999 Y61.463 E.02216
G1 X97.472 Y61.376 F10800
G1 F1200
G1 X97.32 Y61.21 E.0076
G1 X97.025 Y60.709 E.01969
G1 X96.84 Y60.157 E.01969
G1 X96.773 Y59.576 E.0198
G1 X96.839 Y58.946 E.02147
G1 X97.025 Y58.391 E.01981
G1 X97.32 Y57.889 E.01969
G1 X97.713 Y57.46 E.01969
G1 X98.186 Y57.122 E.01969
G1 X98.719 Y56.888 E.0197
G1 X99.289 Y56.771 E.0197
G1 X99.871 Y56.774 E.0197
G1 X100.44 Y56.897 E.0197
G1 X100.97 Y57.136 E.0197
G1 X101.44 Y57.48 E.0197
G1 X101.828 Y57.913 E.0197
G1 X102.119 Y58.418 E.0197
G1 X102.298 Y58.971 E.0197
G1 X102.354 Y59.504 E.01813
G1 X102.284 Y60.173 E.02276
G1 X102.117 Y60.688 E.01833
G1 X101.794 Y61.226 E.02125
G1 X101.439 Y61.621 E.01795
G1 X100.97 Y61.964 E.01967
G1 X100.44 Y62.202 E.0197
G1 X99.871 Y62.326 E.0197
G1 X99.289 Y62.329 E.0197
G1 X98.719 Y62.211 E.0197
G1 X98.186 Y61.978 E.0197
G1 X97.713 Y61.64 E.01969
G1 X97.512 Y61.42 E.01007
G1 X97.984 Y61.333 F10800
;TYPE:External perimeter
G1 F1200
G1 X97.649 Y60.967 E.01681
G1 X97.397 Y60.539 E.01681
G1 X97.239 Y60.068 E.01681
G1 X97.182 Y59.574 E.01684
G1 X97.239 Y59.032 E.01844
G1 X97.397 Y58.561 E.01685
G1 X97.649 Y58.133 E.01681
G1 X97.984 Y57.766 E.01681
G1 X98.388 Y57.477 E.01681
G1 X98.843 Y57.279 E.01681
G1 X99.33 Y57.178 E.01681
G1 X99.826 Y57.181 E.01681
G1 X100.312 Y57.286 E.01681
G1 X100.764 Y57.49 E.01681
G1 X101.165 Y57.783 E.01681
G1 X101.497 Y58.153 E.01681
G1 X101.744 Y58.584 E.01681
G1 X101.897 Y59.056 E.01681
G1 X101.945 Y59.504 E.01525
G1 X101.884 Y60.088 E.01986
G1 X101.744 Y60.518 E.01532
G1 X101.465 Y60.983 E.01836
G1 X101.165 Y61.317 E.01519
G1 X100.764 Y61.61 E.0168
G1 X100.312 Y61.814 E.01681
G1 X99.826 Y61.919 E.01681
G1 X99.33 Y61.922 E.01681
G1 X98.843 Y61.821 E.01681
G1 X98.388 Y61.622 E.01681
G1 X98.033 Y61.368 E.01478
G1 X97.605 Y61.46 F10800
;WIPE_START
G1 F8640
G1 X97.649 Y60.967 E-.12824
G1 X97.397 Y60.539 E-.11464
G1 X97.239 Y60.068 E-.11464
G1 X97.182 Y59.574 E-.1149
G1 X97.239 Y59.032 E-.12576
G1 X97.397 Y58.561 E-.11492
G1 X97.649 Y58.133 E-.11464
G1 X97.984 Y57.766 E-.11465
G1 X98.346 Y57.508 E-.10261
;WIPE_END
G1 E-.055 F2100
G1 Z.6 F10800
G1 X107.913 Y58.978
G1 Z.2
G1 E1.1 F2100
;TYPE:Perimeter
G1 F1200
G1 X107.931 Y58.802 E.00599
G1 X108.163 Y58.086 E.02547
G1 X108.538 Y57.434 E.02547
G1 X109.04 Y56.873 E.02547
G1 X109.648 Y56.429 E.02547
G1 X110.344 Y56.116 E.02585
G1 X111.13 Y55.957 E.02714
G1 X111.826 Y55.957 E.02354
G1 X112.559 Y56.109 E.02534
G1 X113.248 Y56.41 E.02547
G1 X113.86 Y56.848 E.02547
G1 X114.368 Y57.403 E.02547
G1 X114.75 Y58.051 E.02547
G1 X114.989 Y58.765 E.02547
G1 X115.076 Y59.519 E.02572
G1 X114.992 Y60.328 E.02753
G1 X114.75 Y61.049 E.02573
G1 X114.368 Y61.697 E.02547
G1 X113.86 Y62.252 E.02547
G1 X113.248 Y62.69 E.02547
G1 X112.559 Y62.992 E.02547
G1 X111.822 Y63.144 E.02547
G1 X111.07 Y63.14 E.02547
G1 X110.334 Y62.98 E.02547
G1 X109.648 Y62.671 E.02547
G1 X109.04 Y62.227 E.02547
G1 X108.538 Y61.667 E.02547
G1 X108.163 Y61.014 E.02547
G1 X107.931 Y60.298 E.02547
G1 X107.853 Y59.55 E.02547
G1 X107.907 Y59.037 E.01745
G1 X108.285 Y59.333 F10800
G1 F1200
G1 X108.332 Y58.887 E.01519
G1 X108.537 Y58.252 E.02259
G1 X108.87 Y57.673 E.02259
G1 X109.315 Y57.176 E.02259
G1 X109.854 Y56.783 E.02259
G1 X110.47 Y56.506 E.02285
G1 X111.171 Y56.364 E.02422
G1 X111.784 Y56.364 E.02076
G1 X112.435 Y56.499 E.02249
G1 X113.046 Y56.766 E.02258
G1 X113.589 Y57.154 E.02258
G1 X114.039 Y57.646 E.02258
G1 X114.378 Y58.221 E.02258
G1 X114.59 Y58.854 E.02258
G1 X114.667 Y59.521 E.02276
G1 X114.591 Y60.241 E.0245
G1 X114.378 Y60.879 E.02277
G1 X114.039 Y61.454 E.02258
G1 X113.589 Y61.946 E.02258
G1 X113.046 Y62.334 E.02258
G1 X112.435 Y62.602 E.02258
G1 X111.781 Y62.736 E.02258
G1 X111.114 Y62.733 E.02258
G1 X110.462 Y62.591 E.02258
G1 X109.854 Y62.318 E.02258
G1 X109.315 Y61.924 E.02259
G1 X108.87 Y61.427 E.02259
G1 X108.537 Y60.848 E.02259
G1 X108.332 Y60.213 E.02259
G1 X108.262 Y59.55 E.02258
G1 X108.279 Y59.393 E.00535
G1 X108.686 Y59.688 F10800
G1 F1200
G1 X108.671 Y59.55 E.00471
G1 X108.732 Y58.972 E.01969
G1 X108.911 Y58.418 E.0197
G1 X109.202 Y57.913 E.0197
G1 X109.59 Y57.48 E.0197
G1 X110.06 Y57.136 E.0197
G1 X110.595 Y56.896 E.01986
G1 X111.212 Y56.771 E.0213
G1 X111.743 Y56.771 E.01797
G1 X112.311 Y56.889 E.01964
G1 X112.844 Y57.122 E.0197
G1 X113.317 Y57.46 E.01969
G1 X113.71 Y57.89 E.01969
G1 X114.005 Y58.391 E.01969
G1 X114.19 Y58.943 E.01969
G1 X114.257 Y59.524 E.0198
G1 X114.191 Y60.154 E.02147
G1 X114.005 Y60.709 E.01981
G1 X113.71 Y61.211 E.01969
G1 X113.317 Y61.64 E.01969
G1 X112.844 Y61.978 E.01969
G1 X112.311 Y62.212 E.0197
G1 X111.741 Y62.329 E.0197
G1 X111.159 Y62.326 E.0197
G1 X110.59 Y62.203 E.0197
G1 X110.06 Y61.964 E.0197
